X:726
T:The lilting banshee
T:The miller of Glanmire
R:Jig
O:Ireland
B:O'Neill's 766
B:Session tunes 2
S:My arrangement from various sources
Z:Transcription, arrangement, chords:Mike Long
M:6/8
L:1/8
K:D
"A"EAA EAA|"G"BAB G2A|"(Em)"Bee edB|"(D)"def "G"gfg|\
"A"eAA eAA|"G"BAB G2A|"(Em)"Bee "G"edB|"A"BAG A3:|
|:"A"eaa age|"G"dBA G2A|"(Em)"Bee edB|"(D)"def "G"gfg|\
"A"eaa age|"G"dBA G2A|"(Em)"Bee "G"edB|"A"BAG A3:|
